build/img/icon__hall.svg

<svg width="36" height="36" viewBox="0 0 36 36" fill="none" xmlns="http://www.w3.org/2000/svg">
<g opacity="0.4">
<path d="M33.0004 0H3.00039C2.66904 0 2.40039 0.26865 2.40039 0.6V35.4C2.40039 35.7313 2.66904 36 3.00039 36H33.0004C33.3317 36 33.6004 35.7313 33.6004 35.4V0.6C33.6004 0.26865 33.3317 0 33.0004 0ZM15.6004 34.8H3.60039V1.2H15.6004V34.8ZM32.4004 34.8H16.8004V31.2H32.4004V34.8ZM32.4004 30H16.8004V26.4H32.4004V30ZM19.873 24.1758C19.9858 24.0638 20.1382 24.0006 20.2972 24H28.9036C29.0626 24.0006 29.215 24.0638 29.3278 24.1758C29.4407 24.288 29.504 24.4408 29.5036 24.6C29.504 24.7592 29.4407 24.912 29.3278 25.0242C29.215 25.1363 29.0626 25.1994 28.9036 25.2H20.2972C20.1382 25.1994 19.9858 25.1363 19.873 25.0242C19.6388 24.7899 19.6388 24.4101 19.873 24.1758ZM19.9762 21.7758C20.089 21.6637 20.2414 21.6005 20.4004 21.6H29.0062C29.3375 21.5998 29.6064 21.8681 29.6066 22.1996C29.6068 22.3585 29.5438 22.511 29.4316 22.6236C29.3189 22.7366 29.1658 22.8002 29.0062 22.8H20.4004C20.2414 22.7995 20.089 22.7363 19.9762 22.6242C19.742 22.3899 19.742 22.0101 19.9762 21.7758ZM32.4004 25.2H30.5944C30.816 24.6073 30.6983 23.941 30.2872 23.46C30.983 22.75 30.9716 21.6104 30.2618 20.9146C29.9264 20.5858 29.4758 20.4012 29.0062 20.4H20.4004C19.412 20.3929 18.6048 21.1883 18.5977 22.1768C18.5946 22.6019 18.743 23.0143 19.0162 23.34C18.5287 23.8271 18.3687 24.5531 18.6064 25.2H16.8004V9.6H18.0004V11.4C18.0004 11.7314 18.269 12 18.6004 12C18.9317 12 19.2004 11.7314 19.2004 11.4V9.6H20.4004V11.4C20.4004 11.7314 20.669 12 21.0004 12C21.3317 12 21.6004 11.7314 21.6004 11.4V9.6H22.8004V11.4C22.8004 11.7314 23.069 12 23.4004 12C23.7317 12 24.0004 11.7314 24.0004 11.4V9.6H25.2004V11.4C25.2004 11.7314 25.469 12 25.8004 12C26.1317 12 26.4004 11.7314 26.4004 11.4V9.6H27.6004V11.4C27.6004 11.7314 27.869 12 28.2004 12C28.5317 12 28.8004 11.7314 28.8004 11.4V9.6H30.6004C30.9317 9.6 31.2004 9.33135 31.2004 9C31.2004 8.66865 30.9317 8.4 30.6004 8.4H28.8004V7.8C28.8004 7.46865 28.5317 7.2 28.2004 7.2C27.869 7.2 27.6004 7.46865 27.6004 7.8V8.4H26.4004V7.8C26.4004 7.46865 26.1317 7.2 25.8004 7.2C25.469 7.2 25.2004 7.46865 25.2004 7.8V8.4H24.0004V7.8C24.0004 7.46865 23.7317 7.2 23.4004 7.2C23.069 7.2 22.8004 7.46865 22.8004 7.8V8.4H21.6004V7.8C21.6004 7.46865 21.3317 7.2 21.0004 7.2C20.669 7.2 20.4004 7.46865 20.4004 7.8V8.4H19.2004V7.8C19.2004 7.46865 18.9317 7.2 18.6004 7.2C18.269 7.2 18.0004 7.46865 18.0004 7.8V8.4H16.8004V6H32.4004V25.2ZM32.4004 4.8H16.8004V1.2H32.4004V4.8Z" fill="#333333"/>
<path d="M25.7998 32.4H23.3998C23.0685 32.4 22.7998 32.6686 22.7998 33C22.7998 33.3313 23.0685 33.6 23.3998 33.6H25.7998C26.1312 33.6 26.3998 33.3313 26.3998 33C26.3998 32.6686 26.1312 32.4 25.7998 32.4Z" fill="#333333"/>
<path d="M25.7998 27.6H23.3998C23.0685 27.6 22.7998 27.8687 22.7998 28.2C22.7998 28.5314 23.0685 28.8 23.3998 28.8H25.7998C26.1312 28.8 26.3998 28.5314 26.3998 28.2C26.3998 27.8687 26.1312 27.6 25.7998 27.6Z" fill="#333333"/>
<path d="M13.1996 15.6C12.8683 15.6 12.5996 15.8687 12.5996 16.2V19.2C12.5996 19.5314 12.8683 19.8 13.1996 19.8C13.531 19.8 13.7996 19.5314 13.7996 19.2V16.2C13.7996 15.8687 13.531 15.6 13.1996 15.6Z" fill="#333333"/>
<path d="M25.7998 2.39999H23.3998C23.0685 2.39999 22.7998 2.66864 22.7998 2.99999C22.7998 3.33134 23.0685 3.59999 23.3998 3.59999H25.7998C26.1312 3.59999 26.3998 3.33134 26.3998 2.99999C26.3998 2.66864 26.1312 2.39999 25.7998 2.39999Z" fill="#333333"/>
<path d="M10.0387 2.57578C9.80848 2.33743 9.42861 2.33083 9.19026 2.56101C9.18523 2.56581 9.18036 2.57076 9.17548 2.57578L4.97548 6.77578C4.74118 7.01016 4.74126 7.39003 4.97563 7.62433C5.08813 7.73676 5.24061 7.79998 5.39968 7.79998C5.55883 7.79998 5.71138 7.73668 5.82388 7.62419L10.0239 3.42418C10.2622 3.19401 10.2688 2.81413 10.0387 2.57578Z" fill="#333333"/>
<path d="M13.0245 3.17581C12.7902 2.94158 12.4104 2.94158 12.1761 3.17581L4.97614 10.3758C4.73779 10.606 4.73119 10.9859 4.96137 11.2242C5.19154 11.4626 5.57142 11.4692 5.80977 11.239C5.81479 11.2342 5.81967 11.2292 5.82454 11.2242L13.0245 4.02421C13.2588 3.78991 13.2588 3.41011 13.0245 3.17581Z" fill="#333333"/>
</g>
</svg>

<svg width="36" height="36" fill="none" xmlns="http://www.w3.org/2000/svg"><g opacity=".4" fill="#333"><path d="M33 0H3a.6.6 0 00-.6.6v34.8a.6.6 0 00.6.6h30a.6.6 0 00.6-.6V.6A.6.6 0 0033 0zM15.6 34.8h-12V1.2h12v33.6zm16.8 0H16.8v-3.6h15.6v3.6zm0-4.8H16.8v-3.6h15.6V30zm-12.527-5.824a.605.605 0 01.424-.176h8.607c.159 0 .311.064.424.176a.596.596 0 010 .848.605.605 0 01-.424.176h-8.607a.6.6 0 01-.424-1.024zm.103-2.4a.605.605 0 01.424-.176h8.606a.6.6 0 110 1.2H20.4a.6.6 0 01-.424-1.024zM32.4 25.2h-1.806a1.74 1.74 0 00-.307-1.74 1.8 1.8 0 00-1.28-3.06H20.4a1.79 1.79 0 00-1.384 2.94 1.768 1.768 0 00-.41 1.86H16.8V9.6H18v1.8a.6.6 0 101.2 0V9.6h1.2v1.8a.6.6 0 101.2 0V9.6h1.2v1.8a.6.6 0 101.2 0V9.6h1.2v1.8a.6.6 0 101.2 0V9.6h1.2v1.8a.6.6 0 101.2 0V9.6h1.8a.6.6 0 000-1.2h-1.8v-.6a.6.6 0 00-1.2 0v.6h-1.2v-.6a.6.6 0 00-1.2 0v.6H24v-.6a.6.6 0 00-1.2 0v.6h-1.2v-.6a.6.6 0 00-1.2 0v.6h-1.2v-.6a.6.6 0 00-1.2 0v.6h-1.2V6h15.6v19.2zm0-20.4H16.8V1.2h15.6v3.6z"/><path d="M25.8 32.4h-2.4a.6.6 0 000 1.2h2.4a.6.6 0 000-1.2zm0-4.8h-2.4a.6.6 0 000 1.2h2.4a.6.6 0 100-1.2zm-12.6-12a.6.6 0 00-.6.6v3a.6.6 0 001.2 0v-3a.6.6 0 00-.6-.6zM25.8 2.4h-2.4a.6.6 0 000 1.2h2.4a.6.6 0 100-1.2zm-15.761.176a.6.6 0 00-.864 0l-4.2 4.2a.6.6 0 00.849.848l4.2-4.2a.6.6 0 00.015-.848zm2.985.6a.6.6 0 00-.848 0l-7.2 7.2a.6.6 0 10.849.848l7.2-7.2a.6.6 0 000-.848z"/></g></svg>
